icons/keycloak-filled.svg

<svg width="256" height="256" viewBox="0 0 256 256" fill="none" xmlns="http://www.w3.org/2000/svg">
    <g clip-path="url(#clip0_49_2)">
        <path d="M196 0H60C26.8629 0 0 26.8629 0 60V196C0 229.137 26.8629 256 60 256H196C229.137 256 256 229.137 256 196V60C256 26.8629 229.137 0 196 0Z" fill="#008AAA"/>
        <path d="M227.235 85.9813H198.203C197.663 85.9813 197.122 85.6927 196.87 85.2239L173.565 44.7574C173.277 44.2885 172.773 44 172.197 44H77.1041C76.5638 44 76.0235 44.2885 75.7714 44.7574L51.53 86.7387L28.1891 127.205C27.937 127.674 27.937 128.251 28.1891 128.756L51.53 169.223L75.7354 211.24C75.9875 211.709 76.5278 212.033 77.0681 211.997H172.197C172.737 211.997 173.277 211.709 173.565 211.24L196.906 170.773C197.158 170.305 197.699 169.98 198.239 170.016H227.271C228.244 170.016 229 169.223 229 168.285V87.7485C228.964 86.7747 228.172 85.9813 227.235 85.9813ZM116.042 170.773L108.73 183.397C108.622 183.577 108.441 183.757 108.261 183.865C108.045 183.974 107.829 184.046 107.577 184.046H93.0609C92.5567 184.046 92.0884 183.793 91.8723 183.324L70.2243 145.707L68.0991 141.992L60.3188 128.684C60.2108 128.504 60.1387 128.287 60.1748 128.035C60.1748 127.818 60.2468 127.566 60.3549 127.385L68.1712 113.825L91.9083 72.7089C92.1604 72.2761 92.6287 71.9875 93.0969 71.9875H107.577C107.829 71.9875 108.081 72.0597 108.333 72.1679C108.513 72.2761 108.694 72.4203 108.802 72.6367L116.114 85.3321C116.33 85.7649 116.294 86.3059 116.042 86.7026L92.5927 127.385C92.4846 127.566 92.4486 127.782 92.4486 127.963C92.4486 128.179 92.5206 128.359 92.5927 128.54L116.042 169.186C116.366 169.727 116.33 170.305 116.042 170.773ZM188.838 128.684L181.058 141.992L178.932 145.707L157.284 183.324C157.032 183.757 156.6 184.046 156.096 184.046H141.58C141.328 184.046 141.111 183.974 140.895 183.865C140.715 183.757 140.535 183.613 140.427 183.397L133.115 170.773C132.791 170.305 132.791 169.727 133.079 169.259L156.528 128.612C156.636 128.431 156.672 128.215 156.672 128.035C156.672 127.818 156.6 127.638 156.528 127.458L133.079 86.7747C132.827 86.3419 132.791 85.837 133.007 85.4042L140.319 72.7089C140.427 72.5285 140.607 72.3482 140.787 72.24C141.003 72.0957 141.256 72.0597 141.544 72.0597H156.096C156.6 72.0597 157.068 72.3121 157.284 72.781L181.022 113.897L188.838 127.458C188.946 127.674 189.018 127.89 189.018 128.107C189.018 128.251 188.946 128.468 188.838 128.684Z" fill="#F4F2ED"/>
    </g>
    <defs>
        <clipPath id="clip0_49_2">
            <rect width="256" height="256" fill="white"/>
        </clipPath>
    </defs>
</svg>

<svg xmlns="http://www.w3.org/2000/svg" width="256" height="256" fill="none"><g clip-path="url(#clip0_49_2)"><path fill="#008AAA" d="M196 0H60C26.863 0 0 26.863 0 60v136c0 33.137 26.863 60 60 60h136c33.137 0 60-26.863 60-60V60c0-33.137-26.863-60-60-60"/><path fill="#F4F2ED" d="M227.235 85.981h-29.032c-.54 0-1.081-.288-1.333-.757l-23.305-40.467a1.59 1.59 0 0 0-1.368-.757H77.104c-.54 0-1.08.288-1.333.757L51.53 86.74l-23.34 40.466a1.68 1.68 0 0 0 0 1.551l23.34 40.467 24.205 42.017c.252.469.793.793 1.333.757h95.129c.54 0 1.08-.288 1.368-.757l23.341-40.467c.252-.468.793-.793 1.333-.757h29.032a1.73 1.73 0 0 0 1.729-1.731V87.749c-.036-.974-.828-1.768-1.765-1.768m-111.193 84.792-7.312 12.624c-.108.18-.289.36-.469.468a1.5 1.5 0 0 1-.684.181H93.061c-.504 0-.973-.253-1.189-.722l-21.648-37.617-2.125-3.715-7.78-13.308a.97.97 0 0 1-.144-.649c0-.217.072-.469.18-.65l7.816-13.56 23.737-41.116c.252-.433.72-.722 1.189-.722h14.48c.252 0 .504.073.756.18.18.11.361.253.469.47l7.312 12.695c.216.433.18.974-.072 1.37l-23.45 40.683a1.15 1.15 0 0 0-.143.578c0 .216.072.396.144.577l23.449 40.646a1.49 1.49 0 0 1 0 1.587m72.796-42.089-7.78 13.308-2.126 3.715-21.648 37.617c-.252.433-.684.722-1.188.722H141.58c-.252 0-.469-.072-.685-.181-.18-.108-.36-.252-.468-.468l-7.312-12.624a1.36 1.36 0 0 1-.036-1.514l23.449-40.647c.108-.181.144-.397.144-.577 0-.217-.072-.397-.144-.577l-23.449-40.683c-.252-.433-.288-.938-.072-1.37l7.312-12.696c.108-.18.288-.36.468-.469.216-.144.469-.18.757-.18h14.552c.504 0 .972.252 1.188.721l23.738 41.116 7.816 13.561c.108.216.18.432.18.649 0 .144-.072.361-.18.577"/></g><defs><clipPath id="clip0_49_2"><path fill="#fff" d="M0 0h256v256H0z"/></clipPath></defs></svg>
